rospo-icon-theme-classic-common/24x24/places/folder-brown-script.svg

<svg height="24" width="24" xmlns="http://www.w3.org/2000/svg"><rect height="12" opacity=".2" rx="1" width="20" x="2" y="9.5"/><path d="m2 17c0 .554.446 1 1 1h18c .554 0 1-.446 1-1v-11c0-.554-.446-1-1-1h-10v-1c0-.554-.446-1-1-1h-7c-.554 0-1 .446-1 1" fill="#957552"/><rect height="12" opacity=".2" rx="1" width="20" x="2" y="8.5"/><rect fill="#e4e4e4" height="8" rx="1" width="16" x="4" y="7"/><rect fill="#ae8e6c" height="12" rx="1" width="20" x="2" y="9"/><path d="m3 3c-.554 0-1 .446-1 1v .5c0-.554.446-1 1-1h7c .554 0 1 .446 1 1v-.5c0-.554-.446-1-1-1zm8 2v .5h10c .554 0 1 .446 1 1v-.5c0-.554-.446-1-1-1z" fill="#fff" opacity=".1"/><g fill="#3d3226" transform="translate(-2 -1.361)"><path d="m15 18.361h4v1h-4z"/><path d="m11 12.36h1v7h-1z"/><path d="m10.5 13.361c-.83 0-1.5.67-1.5 1.5s.67 1.5 1.5 1.5h1.5.5c.28 0 .5.22.5.5s-.22.51-.5.5h-.5-1.5-1.41c.21.58.76 1 1.41 1h1.5.5c.83 0 1.5-.67 1.5-1.5s-.67-1.5-1.5-1.5h-.5-1.5c-.28 0-.5-.22-.5-.5s.22-.5.5-.5h1.5.5 1.41c-.21-.58-.76-1-1.41-1h-.5z"/></g></svg>

<svg xmlns="http://www.w3.org/2000/svg" width="24" height="24" version="1">
 <rect style="opacity:0.2" width="20" height="12" x="2" y="9.5" rx="1" ry="1"/>
 <path style="fill:#957552" d="M 2,17 C 2,17.554 2.446,18 3,18 H 21 C 21.554,18 22,17.554 22,17 V 6 C 22,5.446 21.554,5 21,5 H 11 V 4 C 11,3.446 10.554,3 10,3 H 3 C 2.446,3 2,3.446 2,4"/>
 <rect style="opacity:0.2" width="20" height="12" x="2" y="8.5" rx="1" ry="1"/>
 <rect style="fill:#dcdcdc" width="16" height="8" x="4" y="7" rx="1" ry="1"/>
 <rect style="fill:#ae8e6c" width="20" height="12" x="2" y="9" rx="1" ry="1"/>
 <path style="opacity:0.1;fill:#ffffff" d="M 3,3 C 2.446,3 2,3.446 2,4 V 4.5 C 2,3.946 2.446,3.5 3,3.5 H 10 C 10.554,3.5 11,3.946 11,4.5 V 4 C 11,3.446 10.554,3 10,3 Z M 11,5 V 5.5 H 21 C 21.554,5.5 22,5.946 22,6.5 V 6 C 22,5.446 21.554,5 21,5 Z"/>
 <g style="fill:#3d3226" transform="translate(-2,-1.361)">
  <path d="M 15,18.361 H 19 V 19.361 H 15 Z"/>
  <rect width="1" height="7" x="11" y="12.36"/>
  <path d="M 10.5,13.361 C 9.67,13.361 9,14.031 9,14.861 9,15.691 9.67,16.361 10.5,16.361 H 12 12.5 C 12.78,16.361 13,16.581 13,16.861 13,17.141 12.78,17.371 12.5,17.361 H 12 10.5 9.09 C 9.3,17.941 9.85,18.361 10.5,18.361 H 12 12.5 C 13.33,18.361 14,17.691 14,16.861 14,16.031 13.33,15.361 12.5,15.361 H 12 10.5 C 10.22,15.361 10,15.141 10,14.861 10,14.581 10.22,14.361 10.5,14.361 H 12 12.5 13.91 C 13.7,13.781 13.15,13.361 12.5,13.361 H 12 Z"/>
 </g>
</svg>
